X:18
T:Alleluia  tes enfants - U109
C:C. Tassin
M:2/4
L:1/8
K:D
"Re"FG(A"La"E)|"Sim"D2GA|"Sol"BA"Mim"GF|"La4/3"E4|"Re"FG(F"La"E)|"Sim"D2FG|("Sol"A2"La"G2)|"Re"F4|
"Re"A2A"La"A|"Sim"F2EF|"Sol"GF"Mim"ED|"La4/3"D2C2|"Re"A2A"La"A|"Sim"F2DE|"Sol"FE"La"DC|"Re"D4||
"Re"A2 A"La"A|"Sim"F2 EF|"Sol"GF"Mim"ED|"La4/3"D2C2|"Re"A2 A"La"A|"Sim"F2 DE|"Sol"FE"La"DC|"Re"D4||
